X:31
T:Toss the Feathers (D)
R:reel
E:7
M:C|
I:speed 350
K:DMix
|D2(3FED ADFD|ABcA GE~E2|D2(3FED ADFA|defd cAGE|\
D2(3FED ADFD|ABcA GE~E2|cABG ~A3^c|d2ed cAGE:|*
|Ad~d2 Ad~d2|Ad~d2 ed^cd|eaag ~a3g|eaag ed^cd|\
ef(3gfe a2ge|f2ed cA~A2|cABG ~A3c|d2ed cAGE:|**
<end>
<start>
